public/home/dao-it/icons/optimism.svg

<svg width="36" height="36" viewBox="0 0 36 36" fill="none" xmlns="http://www.w3.org/2000/svg">
<g clip-path="url(#clip0_2605_13)">
<mask id="mask0_2605_13" style="mask-type:luminance" maskUnits="userSpaceOnUse" x="0" y="0" width="36" height="36">
<path d="M36 0H0V36H36V0Z" fill="white"/>
</mask>
<g mask="url(#mask0_2605_13)">
<path d="M18 36C27.9411 36 36 27.9411 36 18C36 8.05887 27.9411 0 18 0C8.05887 0 0 8.05887 0 18C0 27.9411 8.05887 36 18 36Z" fill="#DFE225"/>
<path d="M12.7532 22.7841C11.6814 22.7841 10.8033 22.532 10.1187 22.0276C9.44321 21.5142 9.10547 20.7847 9.10547 19.839C9.10547 19.6409 9.12797 19.3977 9.173 19.1095C9.29011 18.461 9.45671 17.6819 9.67289 16.7722C10.2854 14.2954 11.866 13.057 14.4149 13.057C15.1084 13.057 15.7299 13.1741 16.2793 13.4083C16.8287 13.6334 17.261 13.9757 17.5762 14.435C17.8915 14.8853 18.0491 15.4258 18.0491 16.0562C18.0491 16.2454 18.0266 16.484 17.9815 16.7722C17.8464 17.5738 17.6843 18.3529 17.4951 19.1095C17.1799 20.3434 16.635 21.2666 15.8605 21.879C15.0859 22.4824 14.0501 22.7841 12.7532 22.7841ZM12.9423 20.8387C13.4467 20.8387 13.8745 20.6901 14.2258 20.3929C14.586 20.0957 14.8427 19.6409 14.9958 19.0284C15.203 18.1818 15.3606 17.4432 15.4687 16.8128C15.5047 16.6236 15.5227 16.43 15.5227 16.2318C15.5227 15.4122 15.0949 15.0024 14.2393 15.0024C13.7349 15.0024 13.3026 15.1511 12.9423 15.4483C12.5911 15.7455 12.3389 16.2003 12.1857 16.8128C12.0236 17.4162 11.8615 18.1548 11.6994 19.0284C11.6634 19.2085 11.6454 19.3977 11.6454 19.5958C11.6454 20.4244 12.0777 20.8387 12.9423 20.8387Z" fill="#242424"/>
<path d="M18.6695 22.649C18.5704 22.649 18.4938 22.6174 18.4398 22.5544C18.3948 22.4823 18.3813 22.4013 18.3993 22.3112L20.2636 13.5298C20.2817 13.4307 20.3312 13.3496 20.4122 13.2866C20.4933 13.2235 20.5789 13.192 20.6689 13.192H24.2626C25.2623 13.192 26.0639 13.3992 26.6673 13.8135C27.2798 14.2278 27.586 14.8267 27.586 15.6103C27.586 15.8355 27.559 16.0696 27.505 16.3128C27.2798 17.3486 26.825 18.1141 26.1405 18.6095C25.465 19.1048 24.5373 19.3526 23.3574 19.3526H21.5336L20.9121 22.3112C20.8941 22.4103 20.8446 22.4913 20.7635 22.5544C20.6824 22.6174 20.5969 22.649 20.5068 22.649H18.6695ZM23.452 17.4882C23.8303 17.4882 24.159 17.3846 24.4382 17.1774C24.7264 16.9703 24.9156 16.6731 25.0056 16.2858C25.0326 16.1327 25.0461 15.9976 25.0461 15.8805C25.0461 15.6193 24.9696 15.4211 24.8165 15.2861C24.6634 15.142 24.4022 15.0699 24.0329 15.0699H22.4117L21.8984 17.4882H23.452Z" fill="#242424"/>
</g>
</g>
<defs>
<clipPath id="clip0_2605_13">
<rect width="36" height="36" fill="white"/>
</clipPath>
</defs>
</svg>

<svg viewBox="0 0 36 36" xmlns="http://www.w3.org/2000/svg"><g clip-path="url(#a)"><mask id="b" style="mask-type:luminance" maskUnits="userSpaceOnUse" x="0" y="0" width="36" height="36"><path d="M36 0H0v36h36z" fill="#fff"/></mask><g mask="url(#b)"><path d="M18 36c9.941 0 18-8.059 18-18S27.941 0 18 0 0 8.059 0 18s8.059 18 18 18" fill="#DFE225"/><path d="M12.753 22.784q-1.608 0-2.634-.756-1.014-.77-1.014-2.189 0-.297.068-.73.176-.972.5-2.337.918-3.715 4.742-3.715 1.04 0 1.864.351.825.338 1.297 1.027.473.675.473 1.621 0 .285-.067.716-.204 1.202-.487 2.338-.473 1.85-1.635 2.769-1.161.905-3.107.905m.19-1.945q.756 0 1.283-.446.54-.445.77-1.365a33 33 0 0 0 .473-2.215q.054-.284.054-.581 0-1.23-1.284-1.23-.756.001-1.297.446-.526.445-.756 1.365a29 29 0 0 0-.487 2.215 3 3 0 0 0-.054.568q0 1.242 1.297 1.243m5.728 1.81a.29.29 0 0 1-.23-.095.32.32 0 0 1-.04-.243l1.864-8.781q.027-.15.148-.243a.4.4 0 0 1 .257-.095h3.594q1.499 0 2.404.621.92.622.919 1.797 0 .339-.081.703-.338 1.554-1.364 2.297-1.014.743-2.784.743h-1.823l-.622 2.958a.4.4 0 0 1-.148.243.4.4 0 0 1-.257.095zm4.782-5.16q.567 0 .986-.312.433-.31.568-.891.04-.23.04-.406 0-.39-.23-.594-.23-.216-.783-.216h-1.621l-.514 2.418z" fill="#242424"/></g></g><defs><clipPath id="a"><path fill="#fff" d="M0 0h36v36H0z"/></clipPath></defs></svg>
